assets/Woman in tuxedo/Default/Flat/woman_in_tuxedo_flat_default.svg

<svg width="32" height="32" viewBox="0 0 32 32" fill="none" xmlns="http://www.w3.org/2000/svg">
<path d="M23.178 11.9242C23.3864 11.4886 23.5 11.0057 23.5 10.4943C23.5 9.82197 23.3011 9.19697 22.9508 8.67614C22.6004 8.1553 22.4205 7.53977 22.4205 6.9053V6.89583C22.4205 5.07765 20.9432 3.60038 19.125 3.60038C18.9451 3.60038 18.7746 3.51515 18.6705 3.37311C18.0833 2.53977 17.108 2 16 2C14.9015 2 13.9261 2.53977 13.3295 3.37311C13.2254 3.52462 13.0549 3.60985 12.875 3.60985C11.0568 3.60985 9.57955 5.08712 9.57955 6.9053V6.91477C9.57955 7.54924 9.39962 8.1553 9.04924 8.68561C8.70833 9.19697 8.5 9.82197 8.5 10.4943C8.5 11.0057 8.61364 11.4886 8.82197 11.9242C8.88826 12.0663 8.88826 12.2367 8.82197 12.3788C8.61364 12.8049 8.5 13.2784 8.5 13.7898C8.5 15.5606 9.93939 17 11.7102 17H20.2803C22.0511 17 23.4905 15.5606 23.4905 13.7898C23.4905 13.2879 23.3769 12.8049 23.1686 12.3788C23.1117 12.2367 23.1117 12.0663 23.178 11.9242ZM16 16.4697C13.3769 16.4697 11.2178 14.5947 11.1042 11.7917L10.9905 8.93182L10.9716 8.62879C10.9716 8.57197 10.9716 8.52462 10.9811 8.4678C10.9811 8.45833 10.9811 8.45833 10.9811 8.44886C10.9811 8.40152 10.9905 8.35417 11 8.30682C11 8.29735 11 8.29735 11 8.28788C11.0095 8.25 11.0189 8.20265 11.0284 8.16477C11.0284 8.1553 11.0284 8.1553 11.0284 8.14583C11.0473 8.10795 11.0568 8.06061 11.0758 8.02273V8.01326C11.0852 7.97538 11.1042 7.9375 11.1231 7.89962C11.142 7.86174 11.1515 7.83333 11.1705 7.79545C11.1705 7.79545 11.1705 7.79545 11.1705 7.78598C11.1894 7.75758 11.2083 7.72917 11.2273 7.69129C11.2273 7.69129 11.2273 7.68182 11.2367 7.68182C11.2557 7.65341 11.2746 7.625 11.2936 7.60606L11.303 7.59659C11.322 7.56818 11.3409 7.54924 11.3598 7.5303L11.3693 7.52083C11.3788 7.50189 11.3977 7.47349 11.4167 7.45455C11.4451 7.43561 11.464 7.41667 11.483 7.39773C11.5019 7.37879 11.5208 7.35985 11.5398 7.35038C11.5398 7.35038 11.5492 7.35038 11.5492 7.34091C11.5682 7.32197 11.5871 7.3125 11.6061 7.30303C11.6061 7.30303 11.6155 7.30303 11.6155 7.29356C11.6345 7.28409 11.6534 7.27462 11.6629 7.26515H11.6723C11.6913 7.25568 11.7008 7.24621 11.7197 7.23674C11.7197 7.23674 11.7197 7.23674 11.7292 7.23674C11.7386 7.2178 11.7576 7.20833 11.767 7.19886C11.8049 7.18939 11.8428 7.17045 11.8712 7.16098C12.392 6.92424 12.8277 6.49811 13.0549 5.93939L13.1307 5.75C13.2064 5.56061 13.4716 5.5322 13.5852 5.69318C14.2955 6.73485 15.4697 7.35038 16.7292 7.35038H19.9015C19.911 7.35038 19.911 7.35038 19.9205 7.35038H19.9299C19.9394 7.35038 19.9394 7.35038 19.9489 7.35038H19.9583H19.9678C19.9773 7.35038 19.9773 7.35038 19.9867 7.35038H19.9962C20.0057 7.35038 20.0152 7.35038 20.0152 7.35038H20.0246C20.0341 7.35038 20.0436 7.35038 20.053 7.35038H20.0625C20.072 7.35038 20.0814 7.35038 20.0909 7.35985H20.1004C20.1098 7.35985 20.1193 7.36932 20.1288 7.36932H20.1383C20.1477 7.36932 20.1572 7.37879 20.1667 7.37879H20.1761C20.1856 7.37879 20.1951 7.38826 20.214 7.38826H20.2235C20.233 7.38826 20.2519 7.39773 20.2614 7.39773H20.2708C20.2803 7.4072 20.2992 7.4072 20.3087 7.41667H20.3182C20.3277 7.42614 20.3466 7.42614 20.3561 7.43561C20.3561 7.43561 20.3655 7.43561 20.3655 7.44508C20.375 7.45455 20.3939 7.45455 20.4034 7.46402C20.4034 7.46402 20.4129 7.46402 20.4129 7.47348C20.4223 7.48295 20.4413 7.49242 20.4508 7.50189C20.4508 7.50189 20.4602 7.50189 20.4602 7.51136C20.4697 7.52083 20.4886 7.5303 20.4981 7.53977C20.4981 7.53977 20.5076 7.53977 20.5076 7.54924C20.517 7.55871 20.536 7.56818 20.5455 7.57765C20.5455 7.57765 20.5455 7.57765 20.5549 7.58712C20.5644 7.59659 20.5833 7.61553 20.5928 7.625C20.5928 7.625 20.5928 7.625 20.6023 7.63447C20.6117 7.64394 20.6307 7.66288 20.6402 7.67235C20.6496 7.69129 20.6686 7.70076 20.678 7.7197C20.6875 7.73864 20.7064 7.75758 20.7159 7.77652C20.8674 7.98485 20.9811 8.29735 20.9811 8.75189L20.858 11.7633C20.7822 14.5852 18.6231 16.4697 16 16.4697Z" fill="#F1A11E"/>
<path d="M16.005 15.5C13.0708 15.5 10.4029 16.6486 8.42889 18.5217C6.31744 20.5252 6 23.3577 6 26.5V30H8H23.5H26V26.5C26 23.2363 25.5817 20.3068 23.3284 18.2932C21.384 16.5556 18.8179 15.5 16.005 15.5Z" fill="#533566"/>
<path d="M15.9798 29.9902H16.0202C20.7341 27.8002 21.4089 22.4902 21.4996 20.9402C21.5097 20.7102 21.3284 20.5102 21.0967 20.5102H20.5629C20.442 20.5102 20.3413 20.4102 20.3513 20.2902C20.3579 19.9333 20.3559 19.2838 20.3538 18.5617C20.3526 18.1719 20.3513 17.7495 20.3513 17.3502C20.3513 16.7302 19.9283 16.1902 19.334 16.0002C18.2865 15.6702 17.1684 15.4902 16.0101 15.4902H15.9899C14.8316 15.4902 13.7135 15.6702 12.666 16.0002C12.0717 16.1902 11.6487 16.7302 11.6487 17.3502C11.6487 17.7503 11.6474 18.1727 11.6462 18.5633C11.6441 19.2856 11.6421 19.9333 11.6487 20.2902C11.6587 20.4102 11.558 20.5102 11.4371 20.5102H10.9033C10.6716 20.5102 10.4903 20.7102 10.5004 20.9402C10.5911 22.4902 11.2659 27.8002 15.9798 29.9902Z" fill="#321B41"/>
<path d="M9 18C6.57 20.03 5.00006 23.09 5.01006 26.5L5.03006 30H9V18Z" fill="#321B41"/>
<path d="M23 18V30H27L26.99 26.4898C26.99 23.0798 25.45 20.02 23 18Z" fill="#321B41"/>
<path d="M13.25 16.5302V21.7502C13.25 24.7302 14.22 27.6202 16 30.0002C17.79 27.6202 18.75 24.6702 18.75 21.6902V16.4702L13.25 16.5302Z" fill="#D3D3D3"/>
<path d="M18.7401 14.5H16H13.25V17.063C13.25 18.3543 13.796 19.5767 14.769 20.4441C14.8583 20.5328 15.0072 20.5131 15.0866 20.4047L16 18.6796L16.9134 20.4047C16.9829 20.5131 17.1318 20.523 17.231 20.4441C18.194 19.5865 18.75 18.3543 18.75 17.063V14.5H18.7401Z" fill="#F4F4F4"/>
<path d="M16 19C14.8932 19 14 18.1724 14 17.1469V14.8441C14 13.8276 14.8932 13 16 13C17.1068 13 18 13.8276 18 14.8531V17.1559C17.9903 18.1724 17.0971 19 16 19Z" fill="#FCB100"/>
<path d="M15.99 18.04C15.743 18.04 15.5238 18.1595 15.3872 18.3437L14.23 17.5401C14.01 17.3901 13.7 17.5501 13.7 17.8201V19.7501C13.7 20.0201 14.01 20.1901 14.23 20.0301L15.3855 19.2341C15.522 19.4196 15.7419 19.54 15.99 19.54C16.2462 19.54 16.4724 19.4116 16.6077 19.2156L17.79 20.0301C18.01 20.1901 18.32 20.0201 18.32 19.7501V17.8201C18.32 17.5501 18.01 17.3901 17.79 17.5401L16.6061 18.3622C16.4706 18.1675 16.2452 18.04 15.99 18.04Z" fill="#321B41"/>
<path d="M16.01 23.2798C16.2862 23.2798 16.51 23.0559 16.51 22.7798C16.51 22.5036 16.2862 22.2798 16.01 22.2798C15.7339 22.2798 15.51 22.5036 15.51 22.7798C15.51 23.0559 15.7339 23.2798 16.01 23.2798Z" fill="#321B41"/>
<path d="M16.01 26.4297C16.2862 26.4297 16.51 26.2058 16.51 25.9297C16.51 25.6535 16.2862 25.4297 16.01 25.4297C15.7339 25.4297 15.51 25.6535 15.51 25.9297C15.51 26.2058 15.7339 26.4297 16.01 26.4297Z" fill="#321B41"/>
<path d="M19.911 7.35994H16.7386C15.4791 7.35994 14.3049 6.73494 13.5947 5.70274C13.4716 5.53229 13.2159 5.5607 13.1401 5.75956L13.0644 5.94896C12.8276 6.4982 12.4015 6.92433 11.8712 7.16108C11.8428 7.17055 11.8049 7.18949 11.767 7.19896C11.5397 7.32206 10.9905 7.68191 10.9716 8.62888L11.1041 11.7918C11.2178 14.5948 13.3769 16.4698 16 16.4698C18.6231 16.4698 20.7822 14.5948 20.8958 11.7918L21.0189 8.7804C21.0189 7.45464 20.0909 7.35994 19.911 7.35994Z" fill="#FFC83D"/>
<path d="M13.3959 9.19678C13.9546 9.19678 14.4092 9.58504 14.7027 10.0206C14.4724 10.0901 14.2484 10.1542 14.0268 10.2177C13.5834 10.3447 13.1498 10.4688 12.6952 10.6267L12.2217 10.2006C12.0323 10.0206 12.0418 9.69867 12.2596 9.54716C12.5721 9.31988 12.9982 9.19678 13.3959 9.19678Z" fill="black"/>
<path d="M18.6136 9.19678C18.0549 9.19678 17.5909 9.58504 17.3068 10.0206C17.5537 10.0961 17.7944 10.1653 18.0338 10.2342C18.4555 10.3555 18.8734 10.4757 19.3143 10.6267L19.7878 10.2006C19.9772 10.0206 19.9677 9.69867 19.7499 9.54716C19.4374 9.31988 19.0113 9.19678 18.6136 9.19678Z" fill="black"/>
<path d="M13.5662 9.30086C12.9128 9.30086 12.3636 9.74593 12.2121 10.352C12.1742 10.5224 12.3068 10.6929 12.4867 10.6929H14.7121C14.8541 10.6929 14.9677 10.5603 14.9393 10.4278C14.8068 9.78381 14.248 9.30086 13.5662 9.30086Z" fill="white"/>
<path d="M18.4338 9.30078C19.0872 9.30078 19.6364 9.74586 19.788 10.3519C19.8258 10.5224 19.6933 10.6928 19.5228 10.6928H17.2974C17.1554 10.6928 17.0417 10.5603 17.0701 10.4277C17.1933 9.78374 17.7614 9.30078 18.4338 9.30078Z" fill="white"/>
<path d="M12.8845 10.4566C12.8845 9.96413 13.2822 9.56641 13.7747 9.56641C14.2671 9.56641 14.6648 9.96413 14.6648 10.4566C14.6648 10.5323 14.6554 10.6175 14.6269 10.6933H12.9129C12.894 10.6175 12.8845 10.5418 12.8845 10.4566Z" fill="#7D4533"/>
<path d="M19.1156 10.4566C19.1156 9.96413 18.7179 9.56641 18.2255 9.56641C17.733 9.56641 17.3353 9.96413 17.3448 10.4566C17.3448 10.5418 17.3542 10.6175 17.3732 10.6933H19.0872C19.1061 10.6175 19.1156 10.5418 19.1156 10.4566Z" fill="#7D4533"/>
<path d="M13.7651 9.94482C14.0492 9.94482 14.2765 10.1721 14.2765 10.4562C14.2765 10.5414 14.2576 10.6172 14.2102 10.6929H13.3106C13.2727 10.6172 13.2538 10.5414 13.2538 10.4562C13.2538 10.1721 13.4811 9.94482 13.7651 9.94482Z" fill="black"/>
<path d="M18.2349 9.94482C17.9508 9.94482 17.7235 10.1721 17.7235 10.4562C17.7235 10.5414 17.7425 10.6172 17.7898 10.6929H18.6894C18.7273 10.6172 18.7462 10.5414 18.7462 10.4562C18.7462 10.1721 18.519 9.94482 18.2349 9.94482Z" fill="black"/>
<path d="M13.6326 10.1058C13.6326 10.1947 13.5606 10.2668 13.4717 10.2668C13.3827 10.2668 13.3107 10.1947 13.3107 10.1058C13.3107 10.0169 13.3827 9.94482 13.4717 9.94482C13.5606 9.94482 13.6326 10.0169 13.6326 10.1058Z" fill="#ED9200"/>
<path d="M18.0928 10.1058C18.0928 10.1947 18.0208 10.2668 17.9319 10.2668C17.8429 10.2668 17.7709 10.1947 17.7709 10.1058C17.7709 10.0169 17.8429 9.94482 17.9319 9.94482C18.0208 9.94482 18.0928 10.0169 18.0928 10.1058Z" fill="#ED9200"/>
<path d="M15.6541 10.2897L15.1583 12.0282C15.0554 12.384 15.2986 12.75 15.6447 12.75H16.3743C16.7204 12.75 16.9636 12.384 16.8607 12.0282L16.365 10.2897C16.2621 9.90342 15.7663 9.90342 15.6541 10.2897Z" fill="#ED9200"/>
<path d="M16.0005 13.7057C15.45 13.7057 14.9301 13.5669 14.4918 13.3212C14.3389 13.2358 14.186 13.4174 14.2777 13.5669C14.6447 14.1542 15.2767 14.5493 16.0005 14.5493C16.7243 14.5493 17.3563 14.1542 17.7233 13.5669C17.8151 13.4174 17.652 13.2465 17.5093 13.3212C17.0607 13.5669 16.551 13.7057 16.0005 13.7057Z" fill="#990839"/>
<path d="M19.3996 8.64804C19.4375 8.67645 19.4848 8.68592 19.5322 8.68592C19.6269 8.68592 19.7121 8.63857 19.7594 8.54388C19.8352 8.4113 19.7973 8.25032 19.6647 8.17456C19.6363 8.15562 18.7651 7.67266 17.7708 7.85259C17.6193 7.881 17.5246 8.02304 17.553 8.16509C17.5814 8.3166 17.7235 8.4113 17.8655 8.38289C18.6018 8.25295 19.2668 8.58264 19.3821 8.63976C19.3928 8.64509 19.3996 8.64804 19.3996 8.64804Z" fill="#D37034"/>
<path d="M12.2309 8.55317C12.2878 8.6384 12.373 8.68575 12.4677 8.68575C12.515 8.68575 12.5624 8.67628 12.6003 8.65734C12.6097 8.64787 13.3294 8.25014 14.1344 8.39218C14.2859 8.42059 14.4184 8.31643 14.4374 8.17438C14.4658 8.03234 14.3616 7.89029 14.2196 7.86188C13.2663 7.68031 12.4349 8.1254 12.3345 8.17916C12.3302 8.18148 12.3256 8.18385 12.3256 8.18385C12.2025 8.25961 12.1552 8.42059 12.2309 8.55317Z" fill="#D37034"/>
</svg>

<svg xmlns="http://www.w3.org/2000/svg" width="32" height="32" fill="none"><path fill="#F1A11E" d="M23.178 11.924c.208-.435.322-.918.322-1.43 0-.672-.199-1.297-.55-1.818a3.162 3.162 0 0 1-.53-1.77v-.01A3.298 3.298 0 0 0 19.126 3.6a.565.565 0 0 1-.454-.227A3.252 3.252 0 0 0 16 2c-1.098 0-2.074.54-2.67 1.373a.549.549 0 0 1-.455.237A3.298 3.298 0 0 0 9.58 6.905v.01c0 .634-.18 1.24-.53 1.77a3.262 3.262 0 0 0-.55 1.81c0 .51.114.994.322 1.43a.544.544 0 0 1 0 .454A3.213 3.213 0 0 0 11.71 17h8.57c1.771 0 3.21-1.44 3.21-3.21 0-.502-.113-.985-.321-1.411a.583.583 0 0 1 .009-.455ZM16 16.47c-2.623 0-4.782-1.875-4.896-4.678l-.113-2.86-.02-.303c0-.057 0-.104.01-.161v-.02c0-.046.01-.094.019-.141v-.02c.01-.037.019-.084.028-.122v-.02c.02-.037.029-.084.048-.122v-.01c.01-.038.028-.075.047-.113.019-.038.029-.067.048-.105v-.009a.847.847 0 0 0 .056-.095s0-.01.01-.01c.019-.028.038-.056.057-.075l.009-.01a.417.417 0 0 1 .057-.066l.01-.01a.287.287 0 0 1 .047-.065c.028-.02.047-.038.066-.057a.249.249 0 0 1 .057-.048s.01 0 .01-.01a.198.198 0 0 1 .056-.037s.01 0 .01-.01a.207.207 0 0 0 .047-.028h.01c.018-.01.028-.019.047-.028h.01c.009-.02.028-.029.037-.038.038-.01.076-.029.104-.038.521-.237.957-.663 1.184-1.222l.076-.189c.075-.19.34-.218.454-.057A3.796 3.796 0 0 0 16.73 7.35H20.063c.009 0 .018 0 .028.01h.01c.009 0 .018.01.028.01h.01c.009 0 .018.009.028.009h.01c.009 0 .018.01.037.01h.01c.009 0 .028.009.037.009h.01c.01.01.028.01.038.019h.01c.009.01.028.01.037.019 0 0 .01 0 .01.01.009.009.028.009.037.018 0 0 .01 0 .01.01.01.009.028.018.038.028 0 0 .01 0 .01.01.009.009.028.018.037.028 0 0 .01 0 .01.01.009.009.028.018.038.028l.009.01.038.037.01.01.037.037c.01.02.029.029.038.048.01.019.028.038.038.057.151.208.265.52.265.975l-.123 3.011c-.076 2.822-2.235 4.707-4.858 4.707Z"/><path fill="#533566" d="M16.005 15.5a10.972 10.972 0 0 0-7.576 3.022C6.317 20.525 6 23.358 6 26.5V30h20v-3.5c0-3.264-.418-6.193-2.672-8.207a10.953 10.953 0 0 0-7.323-2.793Z"/><path fill="#321B41" d="M15.98 29.99h.04c4.714-2.19 5.389-7.5 5.48-9.05a.41.41 0 0 0-.403-.43h-.534c-.121 0-.222-.1-.212-.22.007-.357.005-1.006.003-1.728l-.003-1.212c0-.62-.423-1.16-1.017-1.35a11.053 11.053 0 0 0-3.324-.51h-.02c-1.158 0-2.277.18-3.324.51-.594.19-1.017.73-1.017 1.35l-.003 1.213c-.002.723-.004 1.37.003 1.727.01.12-.091.22-.212.22h-.534a.41.41 0 0 0-.403.43c.091 1.55.766 6.86 5.48 9.05ZM9 18c-2.43 2.03-4 5.09-3.99 8.5l.02 3.5H9V18ZM23 18v12h4l-.01-3.51c0-3.41-1.54-6.47-3.99-8.49Z"/><path fill="#D3D3D3" d="M13.25 16.53v5.22c0 2.98.97 5.87 2.75 8.25 1.79-2.38 2.75-5.33 2.75-8.31v-5.22l-5.5.06Z"/><path fill="#F4F4F4" d="M18.74 14.5h-5.49v2.563c0 1.291.546 2.514 1.519 3.381.09.089.238.07.318-.04L16 18.68l.913 1.725c.07.108.219.118.318.04a4.534 4.534 0 0 0 1.519-3.382V14.5h-.01Z"/><path fill="#FCB100" d="M16 19c-1.107 0-2-.828-2-1.853v-2.303c0-1.016.893-1.844 2-1.844s2 .828 2 1.853v2.303C17.99 18.172 17.097 19 16 19Z"/><path fill="#321B41" d="M15.99 18.04a.749.749 0 0 0-.603.304l-1.157-.804a.342.342 0 0 0-.53.28v1.93c0 .27.31.44.53.28l1.155-.796a.749.749 0 0 0 1.223-.018l1.182.814c.22.16.53-.01.53-.28v-1.93c0-.27-.31-.43-.53-.28l-1.184.822a.75.75 0 0 0-.616-.322ZM16.01 23.28a.5.5 0 1 0 0-1 .5.5 0 0 0 0 1ZM16.01 26.43a.5.5 0 1 0 0-1 .5.5 0 0 0 0 1Z"/><path fill="#FFC83D" d="M19.911 7.36h-3.172a3.82 3.82 0 0 1-3.144-1.657.258.258 0 0 0-.455.057l-.076.189c-.236.55-.662.975-1.193 1.212-.028.01-.066.028-.104.038-.227.123-.776.483-.795 1.43l.132 3.163c.114 2.803 2.273 4.678 4.896 4.678 2.623 0 4.782-1.875 4.896-4.678l.123-3.012c0-1.325-.928-1.42-1.108-1.42Z"/><path fill="#000" d="M13.396 9.197c.559 0 1.013.388 1.307.824-.23.07-.455.133-.676.197-.444.127-.877.25-1.332.409l-.473-.426c-.19-.18-.18-.502.038-.654a1.99 1.99 0 0 1 1.136-.35ZM18.614 9.197c-.56 0-1.023.388-1.307.824.247.075.487.144.727.213.422.121.84.242 1.28.393l.474-.426c.19-.18.18-.502-.038-.654a1.99 1.99 0 0 0-1.136-.35Z"/><path fill="#fff" d="M13.566 9.3c-.653 0-1.202.446-1.354 1.052-.038.17.095.34.275.34h2.225c.142 0 .256-.132.227-.264A1.401 1.401 0 0 0 13.566 9.3ZM18.434 9.3c.653 0 1.202.446 1.354 1.052.038.17-.095.34-.265.34h-2.226c-.142 0-.255-.132-.227-.264A1.391 1.391 0 0 1 18.434 9.3Z"/><path fill="#7D4533" d="M12.884 10.457a.89.89 0 1 1 1.78 0c0 .075-.009.16-.037.236h-1.714a.956.956 0 0 1-.029-.236ZM19.116 10.457a.89.89 0 0 0-.89-.89.875.875 0 0 0-.881.89c0 .085.01.16.028.236h1.714a.956.956 0 0 0 .029-.236Z"/><path fill="#000" d="M13.765 9.945a.51.51 0 0 1 .511.511.427.427 0 0 1-.066.237h-.9a.513.513 0 0 1 .455-.748ZM18.235 9.945a.51.51 0 0 0-.511.511c0 .085.018.161.066.237h.9a.513.513 0 0 0-.455-.748Z"/><path fill="#ED9200" d="M13.633 10.106a.16.16 0 1 1-.322 0 .16.16 0 0 1 .322 0ZM18.093 10.106a.16.16 0 1 1-.322 0 .16.16 0 0 1 .322 0ZM15.654 10.29l-.496 1.738c-.103.356.14.722.487.722h.73c.345 0 .589-.366.486-.722l-.496-1.738c-.103-.387-.599-.387-.71 0Z"/><path fill="#990839" d="M16 13.706c-.55 0-1.07-.14-1.508-.385-.153-.085-.306.096-.214.246.367.587.999.982 1.722.982.724 0 1.356-.395 1.723-.982.092-.15-.071-.32-.214-.246a3.118 3.118 0 0 1-1.509.385Z"/><path fill="#D37034" d="M19.4 8.648a.217.217 0 0 0 .132.038c.095 0 .18-.047.227-.142a.265.265 0 0 0-.094-.37c-.029-.018-.9-.501-1.894-.321a.267.267 0 0 0-.218.312c.028.152.17.246.313.218.736-.13 1.4.2 1.516.257l.018.008ZM12.23 8.553a.282.282 0 0 0 .238.133c.047 0 .094-.01.132-.029.01-.01.73-.407 1.534-.265a.256.256 0 0 0 .303-.218c.029-.142-.075-.284-.217-.312-.954-.182-1.785.263-1.886.317l-.008.005a.273.273 0 0 0-.095.37Z"/></svg>
